X:214
M:4/4
L:1/4
K:C
B2 E B | c B/A/ =G A | B2 B2 | c d c/B/ A | (G F) E2 | B2 E B | c B/A/ =G A | B2 B2 | c d c/B/ A | (G F) E2 | A2 G c | B A d/c/ B | A2 c2 | B c d G | B A G2 | !sintro!G2 c B | A E (G F) | E4 !eintro!|]
